src/svg/device-desktop.svg

<svg version="1.2" baseProfile="tiny" xmlns="http://www.w3.org/2000/svg" width="24" height="24" viewBox="0 0 24 24"><g><path d="M21 1h-18c-1.654 0-3 1.346-3 3v11c0 1.654 1.346 3 3 3h6v2h-3c-.552 0-1 .448-1 1s.448 1 1 1h12c.552 0 1-.448 1-1s-.448-1-1-1h-3v-2h6c1.654 0 3-1.346 3-3v-11c0-1.654-1.346-3-3-3zm-7 19h-4v-2h4v2zm8-5c0 .551-.449 1-1 1h-18c-.551 0-1-.449-1-1v-11c0-.551.449-1 1-1h18c.551 0 1 .449 1 1v11zM20 4h-16c-.55 0-1 .45-1 1v8c0 .55.45 1 1 1h16c.55 0 1-.45 1-1v-8c0-.55-.45-1-1-1zm0 9h-16v-8h16v8z"/></g></svg>

<?xml version="1.0" encoding="iso-8859-1"?>
<!-- Generator: Adobe Illustrator 16.2.1, SVG Export Plug-In . SVG Version: 6.00 Build 0)  -->
<svg version="1.2" baseProfile="tiny" xmlns="http://www.w3.org/2000/svg" xmlns:xlink="http://www.w3.org/1999/xlink" x="0px"
	 y="0px" width="24px" height="24px" viewBox="0 0 24 24" xml:space="preserve">
<g id="Layer_1">
	<path d="M21,1H3C1.346,1,0,2.346,0,4v11c0,1.654,1.346,3,3,3h6v2H6c-0.552,0-1,0.448-1,1s0.448,1,1,1h12c0.552,0,1-0.448,1-1
		s-0.448-1-1-1h-3v-2h6c1.654,0,3-1.346,3-3V4C24,2.346,22.654,1,21,1z M14,20h-4v-2h4V20z M22,15c0,0.551-0.449,1-1,1H3
		c-0.551,0-1-0.449-1-1V4c0-0.551,0.449-1,1-1h18c0.551,0,1,0.449,1,1V15z"/>
	<path d="M20,4H4C3.45,4,3,4.45,3,5v8c0,0.55,0.45,1,1,1h16c0.55,0,1-0.45,1-1V5C21,4.45,20.55,4,20,4z M20,13H4V5h16V13z"/>
</g>
<g id="nyt_x5F_exporter_x5F_info" display="none">
</g>
</svg>
